P3
8 8
255
247 209 84 247 209 84 247 209 84 247 209 84 16 32 51 16 32 51 16 32 51 16 32 51
247 209 84 247 209 84 247 209 84 247 209 84 16 32 51 16 32 51 16 32 51 16 32 51
247 209 84 247 209 84 247 209 84 247 209 84 16 32 51 16 32 51 16 32 51 16 32 51
247 209 84 247 209 84 247 209 84 247 209 84 16 32 51 16 32 51 16 32 51 16 32 51
16 32 51 16 32 51 16 32 51 16 32 51 247 209 84 247 209 84 247 209 84 247 209 84
16 32 51 16 32 51 16 32 51 16 32 51 247 209 84 247 209 84 247 209 84 247 209 84
16 32 51 16 32 51 16 32 51 16 32 51 247 209 84 247 209 84 247 209 84 247 209 84
16 32 51 16 32 51 16 32 51 16 32 51 247 209 84 247 209 84 247 209 84 247 209 84
