P3
8 24
255
204 64 64 204 64 64 204 64 64 204 64 64 204 64 64 204 64 64 204 64 64 204 64 64
204 64 64 204 64 64 204 64 64 204 64 64 204 64 64 204 64 64 204 64 64 204 64 64
204 64 64 204 64 64 204 64 64 204 64 64 204 64 64 204 64 64 204 64 64 204 64 64
204 64 64 204 64 64 204 64 64 204 64 64 204 64 64 204 64 64 204 64 64 204 64 64
204 64 64 204 64 64 204 64 64 204 64 64 204 64 64 204 64 64 204 64 64 204 64 64
204 64 64 204 64 64 204 64 64 204 64 64 204 64 64 204 64 64 204 64 64 204 64 64
204 64 64 204 64 64 204 64 64 204 64 64 204 64 64 204 64 64 204 64 64 204 64 64
204 64 64 204 64 64 204 64 64 204 64 64 204 64 64 204 64 64 204 64 64 204 64 64
204 64 64 204 64 64 204 64 64 204 64 64 204 64 64 204 64 64 204 64 64 204 64 64
204 64 64 204 64 64 204 64 64 204 64 64 204 64 64 204 64 64 204 64 64 204 64 64
204 64 64 204 64 64 204 64 64 204 64 64 204 64 64 204 64 64 204 64 64 204 64 64
204 64 64 204 64 64 204 64 64 204 64 64 204 64 64 204 64 64 204 64 64 204 64 64
68 136 255 68 136 255 68 136 255 68 136 255 68 136 255 68 136 255 68 136 255 68 136 255
68 136 255 68 136 255 68 136 255 68 136 255 68 136 255 68 136 255 68 136 255 68 136 255
68 136 255 68 136 255 68 136 255 68 136 255 68 136 255 68 136 255 68 136 255 68 136 255
68 136 255 68 136 255 68 136 255 68 136 255 68 136 255 68 136 255 68 136 255 68 136 255
68 136 255 68 136 255 68 136 255 68 136 255 68 136 255 68 136 255 68 136 255 68 136 255
68 136 255 68 136 255 68 136 255 68 136 255 68 136 255 68 136 255 68 136 255 68 136 255
68 136 255 68 136 255 68 136 255 68 136 255 68 136 255 68 136 255 68 136 255 68 136 255
68 136 255 68 136 255 68 136 255 68 136 255 68 136 255 68 136 255 68 136 255 68 136 255
68 136 255 68 136 255 68 136 255 68 136 255 68 136 255 68 136 255 68 136 255 68 136 255
68 136 255 68 136 255 68 136 255 68 136 255 68 136 255 68 136 255 68 136 255 68 136 255
68 136 255 68 136 255 68 136 255 68 136 255 68 136 255 68 136 255 68 136 255 68 136 255
68 136 255 68 136 255 68 136 255 68 136 255 68 136 255 68 136 255 68 136 255 68 136 255
